X:1
T:Poi che mesto
T:Giacomo Peetrino
T:Source : Canzonette a la Romana a tre voci---Venetia---Ang.Gardano---1601. Editor : André Vierendeels (20/01/17).
T:Notes : Original clefs :  G2, C1, C4          
T:Poi che mesto
T:©
T:©
T:©
C:Giacomo Peetrino
Z:©
%%score [ 1 2 3 ]
L:1/8
Q:1/4=90
M:4/4
K:C
V:1 treble nm="Soprano 1" snm="S 1"
V:2 treble nm="Soprano 2" snm="S 2"
V:3 treble-8 nm="Tenor" snm="T"
V:1
"^1)" B4 c2 G2 | A2 B2 c4 | B4 z2 e2 | e3 d c2 B2 | A4 G4 | z4 G2 G2 | G2 EF G4 | z2 g2 e2 d2 | %8
w: Poi che me-|sto'e do- len-|te, poi|che me- sto'e do-|len- te,|io di-|mo- ro lon- tan|dal mio bel|
w: Tu che so-|cio mi se-|i, tu|che so- cio mi|se- i,|nel pian-|to in que- sti|so- li- ta-|
 g4 e2 e2 | ^f2 g2 f4 |[M:2/4] g4 ::[M:4/4] e2 ee e2 e2 | f3 e d2 c2 | B4 B4 | G2 GG A2 c2 | %15
w: So- le, dal|mio bel So-|le,|và Ros- si- gnuol e|con tuoi dol- ci'ac-|cen- ti,|dil- le li miei la-|
w: rii, so- li-|ta- rii mon-|ti,|và de co- lei che|vi- ver mi fa'in|sten- ti,|dil- le li miei tor-|
 B4 G4 | e2 ee f3 e | d2 c2 B2 c2- | c2 B2 !fermata!c4 :| %19
w: men- ti,|dil- le li miei la-|men- * * *|* * ti.|
w: men- ti,|dil- le li miei tor-|men- * * *|* * ti.|
V:2
"^2)""^1)" G4 G3 D | E2 G4 ^F2 | G4 z2 G2 | c3 B A2 G2 | ^F4 G4 | B2 B2 B2 GA | B2 B2 Bc d2- | %7
w: Poi che me-|sto'e do- len-|te, poi|che me- sto do-|len- te,|io di- mo- ro lon-|tan dal mio bel So-|
w: E se la|tro- ve- ra-|i, e|se la tro- ve-|ra- i,|or- go- glio- sa ver|me, con hu- mi- li-|
 dc c4 B2 | c4 z2 c2 | A2 G2 A4 |[M:2/4] B4 ::[M:4/4] G2 GG G2 G2 | A3 G F2 E2 | D4 D4 | %14
w: |le, dal|mio bel So-|le,|và Ros- si- gnuol e|con tuoi dol- ce'ac-|cen- ti,|
w: * * ta- *|de, hu-|mi- li- ta-|de,|te gli'ap- pre- sen- ta'e|con vo- ci do-|len- ti,|
 E2 EE F2 C2 | D4 E4 | G2 GG A3 G | F2 C2 D2 E2 | D4 !fermata!C4 :| %19
w: dil- le li miei la-|men- ti,|dil- le li miei la-|men- * * *|* ti.|
w: dil- le li miei tor-|men- ti,|dil- le li miei tor-|men- * * *|* ti.|
V:3
"^3)""^1)""^4)" e4 e3 d | c2 B2 A4 | G4 z2 c2 | c3 G A2 B2 | d4 G4 | G2 G2 G2 EF | G4 z2 g2 | %7
w: Poi che me-|sto'e do- len-|te, poi|che me- sto do-|len- te,|io di- mo- ro lon-|tan dal|
w: Ma che be-|ni- gna for-|si, ma|che be- ni- gna|for- si,|te si mo- stras- se'all'|hor tu|
 e2 c2 g4 | c4 z2 c2 | d2 e2 d4 |[M:2/4] G4 ::[M:4/4] c2 cc c2 c2 | F3 G _B2 c2 | G4 G4 | %14
w: mio bel So-|le, dal|mio bel So-|le,|và Ros- si- gnuol e|con tuoi dol- ci'ac-|cen- ti,|
w: pren- di'ar- di-|re, tu|pren- di'ar- di-|re,|dil- le ti pre- go'an-|cor che non con-|vie- ne,|
 c2 cc F2 A2 | G4 C4 | c2 cc F4- | F2 A2 G4- | G4 !fermata!C4 :| %19
w: dil- le li miei la-|men- ti,|dil- le li miei|_ la- men-|* ti.|
w: a dar- mi tan- te|pe- ne,|a dar- mi tan-|* te pe-|* ne.|

